X: 261
T: Miss Sharpe of Hoddoms Reel
C: by McIntosh ?????
%O: 1795
%R: reel
Z: 2018 John Chambers <jc:trillian.mit.edu>
B: Wm. Campbell "10th Book of New and Favorite Country Dances, Strathspey Reels" 1795 p.26
F: https://archive.org/details/campbellstenthbo00camp
M: C|
L: 1/16
K: F
% - - - - - - - - - - - - - - - - - - - - - - - - -
% Voice 1 arranged for small-scale proofreading
V: 1 staves=2
B2 |\
(A2Bc) c2f2 agfe f2d2 | c2A2 a2f2 G2G2-G2B2 |\
(A2Bc) c2f2 agfe f2d2 | c2b2a2g2 f2ff f2c2 |\
A2Bc c2f2 agfe f2d2 |
c2A2a2f2 g2G2G2B2 |\
A2Bc c2f2 agfe f2d2 | c2B2A2G2 F2FF F2 |[| B2 |\
(A2Bc) F2c2 d2B2f2d2 | c2A2a2f2 g2G2-G2B2 |
(A2Bc) F2c2 d2B2f2d2 | c2B2A2G2 F2FF F2B2 |\
(A2Bc) F2c2 d2B2f2d2 | c2A2a2f2 g2G2-G2B2 |\
(A2Bc) f2c2 d2B2 b2g2 | a2f2c2e2 | f2F2F2 |]
% - - - - - - - - - - - - - - - - - - - - - - - - -
% Voice 1 preserves the original staff layout
V: 2 clef=bass middle=d
z2 |\
f4f4 f4b4 | a4f4 c'4 c4 | f4 f4 f4 b4 | c4 c4 f4 F4 |
f4f4 f4b4 | a4f4 c'4c4 | f4f4 f4b4 | c'4c4 f4f2 |[| z2 |\
f4a4 b4b4 |
a4f4 c'4c4 |\
f4a4 b4b4 | c'4c4 f4F4 | f4a4 b4b4 | a4f4 c'4c4 |
f4a4 b4b4 | c'4c4 f4F2 |]
% - - - - - - - - - - - - - - - - - - - - - - - - -
%%begintext align
%% Swing right hand quite round with your
%% Partner, Cast off one Cu.  2d Cu do the same
%% Cross over two Cu Set,  Cross over another
%% Cu and lead to the top  Sett and turn
%% corners  lead outsides.

%%endtext
% - - - - - - - - - - - - - - - - - - - - - - - - -
